X: 13376
T: Fletch Taylor
R: three-two
M: 3/2
K: Dmajor
|:a2f2 f2e2 d4|f2e2 d2B2 B2A2|d2B2 B2A2 F4|B2A2 F2E2 E4|
a2f2 f2e2 d4|f2e2 d2B2 B2A2|d2B2 B2A2 F4|B2A2 F2E2 E2D2:|
|:D2E2 F2A2 B4|A2F2 B2E2 E4|D2E2 F2A2 d2B2|B2A2 F2E2 E4|
D2E2 F2A2 B4|A2F2 B2E2 E4|d2B2 B2A2 F4|B2A2 F2E2 E2D2:|

